!!!OTL: Nonnenklage.
!!!ARE: Europa, Mitteleuropa, Deutschland
!!!SCT: A0242
!!!TXL: @@GMH
!!!YEM: Copyright 1995, estate of Helmut Schaffrath.
**kern	**text
!! Mixed meters:  4/2; 6/2
*M6/2	*
*met(c|)	*
*clefC3	*
*k[b-]	*
*G:aeo	*
!LO:TX:a:t=aeol. tr.	!
2ryy	.
{2g	Ach
=1	=1
*M4/2	*
2g	Gott
2g	wem
2f	ſol
2e	ichs
=2	=2
1c	kla-
2d}	-gen
{2e	das
=3	=3
*M6/2	*
*lig	*
2.f	her-
4g	.
*Xlig	*
2a	-ʒe-
*lig	*
2.g	-lei-
4f	.
*Xlig	*
2G	-den
=4	=4
1f	mein!
1d}	.
{2r	.
2g	Mein
=5	=5
*M4/2	*
2g	herʒ
2g	wil
2f	mir
2e	ver-
=6	=6
1c	-ʒa-
2d}	-gen,
{2e	ge-
=7	=7
*M6/2	*
*lig	*
2.f	-fan-
4g	.
*Xlig	*
2a	-gen
*lig	*
2.g	můß
4f	.
*Xlig	*
2G	ich
=8	=8
1f	ſein,
1d	.
2r}	.
{2d	Jns
=9	=9
*M4/2	*
2d	klo-
2d	-ſter
2e	bin
2e	ich
=10	=10
1f	ʒo-
2d}	-gen
{2d	in
=11	=11
*M6/2	*
*lig	*
2.f	mei-
4e	.
*Xlig	*
2d	-nen
*lig	*
2.c/	jun-
4B-	.
*Xlig	*
2A	-gen
=12	=12
*M4/2	*
1B-	jar'n,
2r}	.
{2f	dar-
=13	=13
2f	-in
2f	ich
2f	mů-
2f	-ſte
=14	=14
1g	le-
2d}	-ben,
{2d	kein
=15	=15
*M6/2	*
*lig	*
2.f	freud
4g	.
*Xlig	*
2a	noch
1g	lu-
2f	-ſte
=16	=16
1g	ha-
1d}	-ben:
*lig	*
{2.f	das
4e	.
*Xlig	*
=17	=17
2d	klag
1c	ich
2B-	all-
1A	-ʒeit
=18	=18
0/llG}	Gott!
==	==
!!!GTL: Liebeslieder
!!!AGN: Romanze, Ballade, Lied
!! Souterliedekens 1540 ad Ps. 82.
!!!ONB: ESAC (Essen Associative Code) Database: ALTDEU
!!!AMT: irregular
!!!AIN: vox
!!!EED: Helmut Schaffrath
!!!EEV: 1.0
!!!RDF**kern: l = terminal long
!!!AMD: Aeolian
!!!URL-scan: https://rosdok.uni-rostock.de/mcrviewer/recordIdentifier/rosdok_ppn738218359/iview2/phys_0392.iview2?x=-495.6391625615763&y=360.73645323095843&scale=0.4629418472063854&rotation=0&layout=singlePageLayout&logicalDiv=log_0010
!!!ENC: Anna Maria Matuszewska
!!!EEV: 2024/08/0
*-	*-
